X:4149
T:Me'm eus un ti`bord er Blawezh - En dro
O:england
C:CADB Tablatures
M:4/4
L:1/4
K:C
A B/c/ ed|cA B/c/ B|A B/c/ ed|cAB2:|\
|:A B/c/ e>d|Bc AG|A B/c/ e e/d/|Bc A2:|


